X: 31898
T: Peacock Follow The Hen
R: slip jig
M: 9/8
K: Eminor
"Em"GAB GEE GEE|GAB GEE "D"F2D|"Em"GAB GEE GEE|"D"FGA AdA F2D:|
"G"GAB dBB dBB|GAB dBB"A"^c2A|"G"GAB dBB dBB|"D"ABA A2G FED:|
"Em"efg eBB eBB|efg eBB "D"d2B|"Em" efg eBB eBB|"Em" A3~fef az2:|
"G"GAB dBB dBB|GAB dBB"A"^c2A|"G"GAB dBB dBB|"D"ABA A2G FED:|
"Em"GAB GEE GEE|GAB GEE "D"F2D|"Em"GAB GEE GEE|"D"FGA AdA F2D:|
"G"DFG BGG BGG|DFG BGG "A"A2F|"G" DFG BGG BGG|"D" ABA A2G FED:|
GAB GEE GEE|GAB GEE F2D|GAB GEE GEE|FGA AdA F2D:|
GAB dBB dBB|GAB dBB^c2A|GAB dBB dBB|ABA A2G FED:|
GAB GEE GEE|GAB GEE F2D|GAB GEE GEE|FGA AdA F2D:|
DFG BGG BGG|DFG BGG A2F|DFG BGG BGG|ABA A2G FED:|
EFG EB,B, EB,B,|EFG EB,B, D2B,|EFG EB,B, EB,B,|D3~EDE Az2:|
GAB dBB dBB|GAB dBB^c2A|GAB dBB dBB|ABA A2G FED:|

